apps/sim/public/landing/features-transition.svg

<svg fill="none" height="366" viewBox="0 0 1440 366" width="1440" xmlns="http://www.w3.org/2000/svg"><path d="m790.892-76.5986c-17.267.4372-31.129 14.5717-31.129 31.9433v103.9365l.009.8243c.431 16.9925 14.127 30.6887 31.12 31.1191l.824.0098h159.192c6.773 0 11.365 7.5394 11.251 14.3106-.003.182-.005.365-.005.548v35.896c0 17.648 14.307 31.954 31.954 31.954h118.092c4.97 0 9 4.03 9 9v149.984l.01.824c.44 17.267 14.57 31.129 31.94 31.129h371.53c17.37 0 31.5-13.863 31.94-31.129l.01-.824v-149.984c0-4.97 4.03-9 9-9h10.6c17.64 0 31.95-14.306 31.95-31.954v-35.896c0-17.6477-14.31-31.9534-31.95-31.9534h-144.05c-4.97 0-9-4.0294-9-9v-109.7958c0-17.3714-13.86-31.505-31.13-31.9424l-.82-.0108h-599.514zm732.778 250.5416c4.97 0 9 4.03 9 9v149.984c0 4.411-3.58 7.988-7.99 7.988h-371.53c-4.41 0-7.98-3.576-7.98-7.988v-149.984c0-4.97 4.03-9 9-9zm-132.44-226.5875c4.41 0 7.99 3.5768 7.99 7.9883v102.9257c0 4.9706-4.03 9-9 9h-598.504c-4.412-.0001-7.988-3.5765-7.988-7.9883v-103.9365c0-4.4117 3.576-7.9891 7.988-7.9892z" fill="#f3f3f3"/><path d="m790.892-76.5986-.019-.7498.009-.0002zm-31.129 31.9433h-.75zm0 103.9365-.75.0089v-.0089zm.009.8243-.749.019v-.0102zm31.12 31.1191-.009.75-.01-.0002zm.824.0098v.75l-.009-.0001zm170.438 14.8586h-.75zm159.046 226.834-.75.01v-.01zm.01.824-.75.019v-.009zm403.47 31.129v.75zm31.94-31.129.75.01v.009zm.01-.824h.75v.01zm19.6-158.984v.75zm31.95-67.85h.75zm-185-150.7492.75-.0001v.0001zm-31.13-31.9424.01-.75.01.0002zm-.82-.0108v-.75l.01.0001zm-599.514 0-.01-.75h.01zm740.954 409.5364h.75zm-7.99 7.988v.75zm-379.51-7.988h-.75zm254.05-377.5832.75-.0001v.0001zm-607.504 111.9257v.75zm-7.988-7.9883h-.75zm0-103.9365h-.75zm7.988-7.9892v-.75zm170.443 158.1895-.75-.012zm-171.267-182.1436.019.7497c-16.861.427-30.398 14.2298-30.398 31.1936h-.75-.75c0-17.7795 14.188-32.2455 31.86-32.6931zm-31.129 31.9433h.75v103.9365h-.75-.75v-103.9365zm0 103.9365.75-.0088.009.8242-.75.0089-.749.0088-.01-.8242zm.009.8243.75-.019c.42 16.5932 13.795 29.9681 30.389 30.3884l-.019.7497-.019.7498c-17.392-.4405-31.41-14.458-31.85-31.8499zm31.12 31.1191.009-.7499.824.0097-.009.75-.009.7499-.824-.0097zm.824.0098v-.75h159.192v.75.75h-159.192zm170.443 14.3106.75.013c-.003.178-.005.356-.005.535h-.75-.75c0-.187.002-.374.005-.56zm-.005.548h.75v35.896h-.75-.75v-35.896zm0 35.896h.75c0 17.234 13.971 31.204 31.204 31.204v.75.75c-18.061 0-32.704-14.642-32.704-32.704zm31.954 31.954v-.75h118.092v.75.75h-118.092zm127.092 9h.75v149.984h-.75-.75v-149.984zm0 149.984.75-.01.01.824-.75.01-.75.01-.01-.824zm.01.824.75-.019c.43 16.861 14.23 30.398 31.19 30.398v.75.75c-17.78 0-32.24-14.188-32.69-31.86zm31.94 31.129v-.75h371.53v.75.75h-371.53zm371.53 0v-.75c16.96 0 30.77-13.537 31.19-30.398l.75.019.75.019c-.45 17.672-14.91 31.86-32.69 31.86zm31.94-31.129-.75-.01.01-.824.75.01.75.01-.01.824zm.01-.824h-.75v-149.984h.75.75v149.984zm9-158.984v-.75h10.6v.75.75h-10.6zm10.6 0v-.75c17.23 0 31.2-13.971 31.2-31.204h.75.75c0 18.062-14.64 32.704-32.7 32.704zm31.95-31.954h-.75v-35.896h.75.75v35.896zm0-35.896h-.75c0-17.2334-13.97-31.2034-31.2-31.2034v-.75-.75c18.06 0 32.7 14.6415 32.7 32.7034zm-31.95-31.9534v.75h-144.05v-.75-.75h144.05zm-153.05-9h-.75v-109.7958h.75.75v109.7958zm0-109.7958h-.75c0-16.9636-13.54-30.7655-30.4-31.1927l.02-.7497.02-.7498c17.67.4477 31.86 14.9129 31.86 32.6921zm-31.13-31.9424-.01.7499-.82-.0107.01-.75.01-.7499.82.0107zm-.82-.0108v.75h-599.514v-.75-.75h599.514zm-599.514 0 .01.75-.825.0107-.009-.7499-.01-.75.824-.0107zm740.954 259.5524h.75v149.984h-.75-.75v-149.984zm0 149.984h.75c0 4.826-3.91 8.738-8.74 8.738v-.75-.75c4 0 7.24-3.241 7.24-7.238zm-7.99 7.988v.75h-371.53v-.75-.75h371.53zm-371.53 0v.75c-4.82 0-8.73-3.912-8.73-8.738h.75.75c0 3.997 3.24 7.238 7.23 7.238zm-7.98-7.988h-.75v-149.984h.75.75v149.984zm9-158.984v-.75h369.5v.75.75h-369.5zm237.06-226.5875v-.75c4.82 0 8.74 3.9125 8.74 8.7382l-.75.0001h-.75c0-3.9972-3.25-7.2383-7.24-7.2383zm7.99 7.9883h.75v102.9257h-.75-.75v-102.9257zm-9 111.9257v.75h-598.504v-.75-.75h598.504zm-598.504 0v.75c-4.826-.0001-8.738-3.9123-8.738-8.7383h.75.75c0 3.9976 3.24 7.2382 7.238 7.2383zm-7.988-7.9883h-.75v-103.9365h.75.75v103.9365zm0-103.9365h-.75c0-4.8257 3.912-8.7391 8.738-8.7392v.75.75c-3.997.0001-7.238 3.2416-7.238 7.2393zm7.988-7.9892v-.75h599.514v.75.75h-599.514zm607.504 110.914h.75c0 5.3848-4.37 9.75-9.75 9.75v-.75-.75c4.55 0 8.25-3.6936 8.25-8.25zm133.45 124.6735h-.75c0-4.556-3.7-8.25-8.25-8.25v-.75-.75c5.38 0 9.75 4.366 9.75 9.75zm-100.49-108.8034v.75c-5.38 0-9.75-4.3652-9.75-9.75h.75.75c0 4.5564 3.7 8.25 8.25 8.25zm-481.272 17.0948v-.75c3.69 0 6.736 2.0578 8.815 4.9259 2.077 2.8639 3.246 6.6007 3.186 10.1477l-.75-.013-.75-.012c.054-3.225-1.016-6.6436-2.9-9.2422-1.881-2.5946-4.518-4.3064-7.601-4.3064zm605.722 91.7086h-.75c0-5.384 4.37-9.75 9.75-9.75v.75.75c-4.55 0-8.25 3.694-8.25 8.25zm-411.46 0h-.75c0-5.384 4.36-9.75 9.75-9.75v.75.75c-4.56 0-8.25 3.694-8.25 8.25zm-32.97-9v-.75c5.38 0 9.75 4.366 9.75 9.75h-.75-.75c0-4.556-3.69-8.25-8.25-8.25z" fill="#e9e9e9"/><path d="m0 0h1440v36h-1440z" fill="#f3f3f3"/><g stroke="#e9e9e9" stroke-width="1.5"><path d="m-1 1h1441"/><path d="m-214.277 17.3828h1654.277"/><path d="m-214.277 36.2187 1654.277.0001"/></g></svg>

<svg width="1440" height="366" viewBox="0 0 1440 366" fill="none" xmlns="http://www.w3.org/2000/svg">
<path d="M790.892 -76.5986C773.625 -76.1614 759.763 -62.0269 759.763 -44.6553V59.2812L759.772 60.1055C760.203 77.098 773.899 90.7942 790.892 91.2246L791.716 91.2344H950.908C957.681 91.2344 962.273 98.7738 962.159 105.545C962.156 105.727 962.154 105.91 962.154 106.093V141.989C962.154 159.637 976.461 173.943 994.108 173.943H1112.2C1117.17 173.943 1121.2 177.973 1121.2 182.943V332.927L1121.21 333.751C1121.65 351.018 1135.78 364.88 1153.15 364.88H1524.68C1542.05 364.88 1556.18 351.017 1556.62 333.751L1556.63 332.927V182.943C1556.63 177.973 1560.66 173.943 1565.63 173.943H1576.23C1593.87 173.943 1608.18 159.637 1608.18 141.989V106.093C1608.18 88.4453 1593.87 74.1396 1576.23 74.1396H1432.18C1427.21 74.1396 1423.18 70.1102 1423.18 65.1396V-44.6562C1423.18 -62.0276 1409.32 -76.1612 1392.05 -76.5986L1391.23 -76.6094H791.716L790.892 -76.5986ZM1523.67 173.943C1528.64 173.943 1532.67 177.973 1532.67 182.943V332.927C1532.67 337.338 1529.09 340.915 1524.68 340.915H1153.15C1148.74 340.915 1145.17 337.339 1145.17 332.927V182.943C1145.17 177.973 1149.2 173.943 1154.17 173.943H1523.67ZM1391.23 -52.6445C1395.64 -52.6445 1399.22 -49.0677 1399.22 -44.6562V58.2695C1399.22 63.2401 1395.19 67.2695 1390.22 67.2695H791.716C787.304 67.2694 783.728 63.693 783.728 59.2812V-44.6553C783.728 -49.067 787.304 -52.6444 791.716 -52.6445H1391.23Z" fill="#F3F3F3"/>
<path d="M790.892 -76.5986L790.873 -77.3484L790.882 -77.3486L790.892 -76.5986ZM759.763 -44.6553H759.013V-44.6553L759.763 -44.6553ZM759.763 59.2812L759.013 59.2901V59.2812H759.763ZM759.772 60.1055L759.023 60.1245L759.023 60.1143L759.772 60.1055ZM790.892 91.2246L790.883 91.9746L790.873 91.9744L790.892 91.2246ZM791.716 91.2344V91.9844L791.707 91.9843L791.716 91.2344ZM962.154 106.093H961.404V106.093H962.154ZM1121.2 332.927L1120.45 332.937V332.927H1121.2ZM1121.21 333.751L1120.46 333.77L1120.46 333.761L1121.21 333.751ZM1524.68 364.88L1524.68 365.63H1524.68V364.88ZM1556.62 333.751L1557.37 333.761L1557.37 333.77L1556.62 333.751ZM1556.63 332.927H1557.38L1557.38 332.937L1556.63 332.927ZM1576.23 173.943L1576.23 174.693H1576.23V173.943ZM1608.18 106.093H1608.93V106.093H1608.18ZM1423.18 -44.6562L1423.93 -44.6563V-44.6562H1423.18ZM1392.05 -76.5986L1392.06 -77.3486L1392.07 -77.3484L1392.05 -76.5986ZM1391.23 -76.6094V-77.3594L1391.24 -77.3593L1391.23 -76.6094ZM791.716 -76.6094L791.706 -77.3594H791.716V-76.6094ZM1532.67 332.927H1533.42V332.927H1532.67ZM1524.68 340.915L1524.68 341.665H1524.68V340.915ZM1145.17 332.927H1144.42V332.927H1145.17ZM1399.22 -44.6562L1399.97 -44.6563V-44.6562H1399.22ZM791.716 67.2695V68.0195V68.0195V67.2695ZM783.728 59.2812H782.978V59.2812H783.728ZM783.728 -44.6553H782.978V-44.6553L783.728 -44.6553ZM791.716 -52.6445V-53.3945V-53.3945V-52.6445ZM962.159 105.545L961.409 105.533L962.159 105.545ZM790.892 -76.5986L790.911 -75.8489C774.05 -75.4219 760.513 -61.6191 760.513 -44.6553L759.763 -44.6553L759.013 -44.6553C759.013 -62.4348 773.201 -76.9008 790.873 -77.3484L790.892 -76.5986ZM759.763 -44.6553H760.513V59.2812H759.763H759.013V-44.6553H759.763ZM759.763 59.2812L760.513 59.2724L760.522 60.0966L759.772 60.1055L759.023 60.1143L759.013 59.2901L759.763 59.2812ZM759.772 60.1055L760.522 60.0865C760.942 76.6797 774.317 90.0546 790.911 90.4749L790.892 91.2246L790.873 91.9744C773.481 91.5339 759.463 77.5164 759.023 60.1245L759.772 60.1055ZM790.892 91.2246L790.901 90.4747L791.725 90.4844L791.716 91.2344L791.707 91.9843L790.883 91.9746L790.892 91.2246ZM791.716 91.2344V90.4844H950.908V91.2344V91.9844H791.716V91.2344ZM962.159 105.545L962.909 105.558C962.906 105.736 962.904 105.914 962.904 106.093H962.154H961.404C961.404 105.906 961.406 105.719 961.409 105.533L962.159 105.545ZM962.154 106.093H962.904V141.989H962.154H961.404V106.093H962.154ZM962.154 141.989H962.904C962.904 159.223 976.875 173.193 994.108 173.193V173.943V174.693C976.047 174.693 961.404 160.051 961.404 141.989H962.154ZM994.108 173.943V173.193H1112.2V173.943V174.693H994.108V173.943ZM1121.2 182.943H1121.95V332.927H1121.2H1120.45V182.943H1121.2ZM1121.2 332.927L1121.95 332.917L1121.96 333.741L1121.21 333.751L1120.46 333.761L1120.45 332.937L1121.2 332.927ZM1121.21 333.751L1121.96 333.732C1122.39 350.593 1136.19 364.13 1153.15 364.13V364.88V365.63C1135.37 365.63 1120.91 351.442 1120.46 333.77L1121.21 333.751ZM1153.15 364.88V364.13H1524.68V364.88V365.63H1153.15V364.88ZM1524.68 364.88L1524.68 364.13C1541.64 364.13 1555.45 350.593 1555.87 333.732L1556.62 333.751L1557.37 333.77C1556.92 351.442 1542.46 365.63 1524.68 365.63L1524.68 364.88ZM1556.62 333.751L1555.87 333.741L1555.88 332.917L1556.63 332.927L1557.38 332.937L1557.37 333.761L1556.62 333.751ZM1556.63 332.927H1555.88V182.943H1556.63H1557.38V332.927H1556.63ZM1565.63 173.943V173.193H1576.23V173.943V174.693H1565.63V173.943ZM1576.23 173.943L1576.23 173.193C1593.46 173.193 1607.43 159.222 1607.43 141.989H1608.18H1608.93C1608.93 160.051 1594.29 174.693 1576.23 174.693L1576.23 173.943ZM1608.18 141.989H1607.43V106.093H1608.18H1608.93V141.989H1608.18ZM1608.18 106.093H1607.43C1607.43 88.8596 1593.46 74.8896 1576.23 74.8896V74.1396V73.3896C1594.29 73.3896 1608.93 88.0311 1608.93 106.093H1608.18ZM1576.23 74.1396V74.8896H1432.18V74.1396V73.3896H1576.23V74.1396ZM1423.18 65.1396H1422.43V-44.6562H1423.18H1423.93V65.1396H1423.18ZM1423.18 -44.6562L1422.43 -44.6562C1422.43 -61.6198 1408.89 -75.4217 1392.03 -75.8489L1392.05 -76.5986L1392.07 -77.3484C1409.74 -76.9007 1423.93 -62.4355 1423.93 -44.6563L1423.18 -44.6562ZM1392.05 -76.5986L1392.04 -75.8487L1391.22 -75.8594L1391.23 -76.6094L1391.24 -77.3593L1392.06 -77.3486L1392.05 -76.5986ZM1391.23 -76.6094V-75.8594H791.716V-76.6094V-77.3594H1391.23V-76.6094ZM791.716 -76.6094L791.726 -75.8594L790.901 -75.8487L790.892 -76.5986L790.882 -77.3486L791.706 -77.3593L791.716 -76.6094ZM1532.67 182.943H1533.42V332.927H1532.67H1531.92V182.943H1532.67ZM1532.67 332.927H1533.42C1533.42 337.753 1529.51 341.665 1524.68 341.665L1524.68 340.915L1524.68 340.165C1528.68 340.165 1531.92 336.924 1531.92 332.927H1532.67ZM1524.68 340.915V341.665H1153.15V340.915V340.165H1524.68V340.915ZM1153.15 340.915V341.665C1148.33 341.665 1144.42 337.753 1144.42 332.927H1145.17H1145.92C1145.92 336.924 1149.16 340.165 1153.15 340.165V340.915ZM1145.17 332.927H1144.42V182.943H1145.17H1145.92V332.927H1145.17ZM1154.17 173.943V173.193H1523.67V173.943V174.693H1154.17V173.943ZM1391.23 -52.6445V-53.3945C1396.05 -53.3945 1399.97 -49.482 1399.97 -44.6563L1399.22 -44.6562L1398.47 -44.6562C1398.47 -48.6534 1395.22 -51.8945 1391.23 -51.8945V-52.6445ZM1399.22 -44.6562H1399.97V58.2695H1399.22H1398.47V-44.6562H1399.22ZM1390.22 67.2695V68.0195H791.716V67.2695V66.5195H1390.22V67.2695ZM791.716 67.2695V68.0195C786.89 68.0194 782.978 64.1072 782.978 59.2812H783.728H784.478C784.478 63.2788 787.718 66.5194 791.716 66.5195V67.2695ZM783.728 59.2812H782.978V-44.6553H783.728H784.478V59.2812H783.728ZM783.728 -44.6553L782.978 -44.6553C782.978 -49.481 786.89 -53.3944 791.716 -53.3945V-52.6445V-51.8945C787.719 -51.8944 784.478 -48.6529 784.478 -44.6552L783.728 -44.6553ZM791.716 -52.6445V-53.3945H1391.23V-52.6445V-51.8945H791.716V-52.6445ZM1399.22 58.2695H1399.97C1399.97 63.6543 1395.6 68.0195 1390.22 68.0195V67.2695V66.5195C1394.77 66.5195 1398.47 62.8259 1398.47 58.2695H1399.22ZM1532.67 182.943H1531.92C1531.92 178.387 1528.22 174.693 1523.67 174.693V173.943V173.193C1529.05 173.193 1533.42 177.559 1533.42 182.943H1532.67ZM1432.18 74.1396V74.8896C1426.8 74.8896 1422.43 70.5244 1422.43 65.1396H1423.18H1423.93C1423.93 69.696 1427.63 73.3896 1432.18 73.3896V74.1396ZM950.908 91.2344V90.4844C954.598 90.4844 957.644 92.5422 959.723 95.4103C961.8 98.2742 962.969 102.011 962.909 105.558L962.159 105.545L961.409 105.533C961.463 102.308 960.393 98.8894 958.509 96.2908C956.628 93.6962 953.991 91.9844 950.908 91.9844V91.2344ZM1556.63 182.943H1555.88C1555.88 177.559 1560.25 173.193 1565.63 173.193V173.943V174.693C1561.08 174.693 1557.38 178.387 1557.38 182.943H1556.63ZM1145.17 182.943H1144.42C1144.42 177.559 1148.78 173.193 1154.17 173.193V173.943V174.693C1149.61 174.693 1145.92 178.387 1145.92 182.943H1145.17ZM1112.2 173.943V173.193C1117.58 173.193 1121.95 177.559 1121.95 182.943H1121.2H1120.45C1120.45 178.387 1116.76 174.693 1112.2 174.693V173.943Z" fill="#E9E9E9"/>
<rect x="0" y="0" width="1440" height="36" fill="#F3F3F3"/>
<path d="M-1 1L1440 1" stroke="#E9E9E9" stroke-width="1.5"/>
<path d="M-214.277 17.3828L1440 17.3828" stroke="#E9E9E9" stroke-width="1.5"/>
<path d="M-214.277 36.2187L1440 36.2188" stroke="#E9E9E9" stroke-width="1.5"/>
</svg>
